img/icon-css.svg

<svg fill="none" height="24" viewBox="0 0 22 24" width="22" xmlns="http://www.w3.org/2000/svg"><g clip-rule="evenodd" fill-rule="evenodd"><path d="m10.9658.331543h-10.618388l2.153788 20.898757 8.4646 2.4239 8.4649-2.4239 2.1537-20.898757" fill="#0066a9"/><path d="m2.84874 20.9718 8.11706 2.291 8.1174-2.291 2.0854-20.294444h-20.398608zm8.11706 3.0282-8.81223-2.4904-2.15357-21.5096h22l-2.1469 21.5096z" fill="#111840"/><path d="m17.9791 20.0291 1.7313-18.06279h-8.6694v19.81599" fill="#13a1d1"/><path d="m10.9658 19.3514-5.34308-1.4875-.42252-4.2436 2.56933-.0664.14295 2.218 2.98522.9429 3.1896-1.2816v-3.0349l-9.01674-.1261-.27956-2.4239 6.4544-2.63623-6.59736-.1332-.20444-2.4236h13.1129l-.0682 2.56329-6.3862 2.56329 5.9707.07325-.6273 7.9421" fill="#fefefe"/></g></svg>

<svg width="22" height="24" viewBox="0 0 22 24" fill="none" xmlns="http://www.w3.org/2000/svg">
<path fill-rule="evenodd" clip-rule="evenodd" d="M10.9658 0.332031H0.347412L2.5012 21.2308L10.9658 23.6547L19.4307 21.2308L21.5844 0.332031" fill="#EF493F"/>
<path fill-rule="evenodd" clip-rule="evenodd" d="M2.84874 20.9718L10.9658 23.2628L19.0832 20.9718L21.1686 0.677356H0.769992L2.84874 20.9718ZM10.9658 24L2.15357 21.5096L0 0H22L19.8531 21.5096L10.9658 24Z" fill="black"/>
<path fill-rule="evenodd" clip-rule="evenodd" d="M10.9658 19.3514L5.62272 17.8639L5.2002 13.6203L7.76953 13.5539L7.91248 15.7719L10.8977 16.7148L14.0873 15.4332V12.3983L5.07056 12.2722L4.791 9.8483L11.2454 7.21207L4.64804 7.07887L4.4436 4.65527H17.5565L17.4883 7.21856L11.1021 9.78185L17.0728 9.8551L16.4455 17.7972" fill="#FEFEFE"/>
</svg>
